X: 21475
T: Kevin Ryan's
R: reel
M: 4/4
K: Dmajor
DFAF ~E3F|EDFA d3e|f2de fa~a2|abaf gfeg|
fAdf edce|~d3c dAFA|GE~E2 GABd|1 cAGE D3A,:|2 cAGE D3A||
|:dBAB df~f2|abaf gfef|df~f2 dfgb|afdf e3g|
fa~a2 fb~b2|afdf edBc|dBAF GABd|1 cAGE D3A:|2 cAGE D3A,||

